; generated by AnkerMake Studio 1.5.26 on 2025-07-24 at 12:30:11 UTC

;MINX:86.126
;MINY:95.184
;MINZ:0.14
;MAXX:148.875
;MAXY:139.816
;MAXZ:56.84

; filament_type = "AnkerMake PLA+ Basic"
;Filament Name:AnkerMake PLA+ Basic
;Machine Name:AnkerMake M5
;Profile Name:Normal - M5 0.4mm - PLA+ Basic
;multi_model:false
;support_enable:false
;damaged:false
;repaired:false
;adhesion_type:auto_brim
;perimeter_flow_ratio:1
;Machine Nozzle Size:0.4
;Print Mode:Normal - M5 0.4mm - PLA+ Basic
;Filament weight: 26.8599g
;Filament used: 9005.7mm
;Layer height: 0.2
;material_print_temperature_layer_0: 230
;speed_infill: 250
;speed_wall_0: 150
;speed_wall_x: 250
;acceleration_print: 2500
;acceleration_travel: 0
;MAXSPEED:15000
;TIME:5920.39s

;
;
; PRINT_COMPATIBLE
;  P_NORMAL
;  F_PLA__Basic
; 

; external perimeters extrusion width = 0.44mm
; perimeters extrusion width = 0.40mm
; infill extrusion width = 0.40mm
; solid infill extrusion width = 0.40mm
; top infill extrusion width = 0.40mm
; support material extrusion width = 0.30mm
; first layer extrusion width = 0.44mm

M73 P0 R98
;TYPE:Custom
M104 S230 ; set final nozzle temp
M190 S65 ; set and wait for bed temp to stabilize
M109 S230 ; wait for nozzle temp to stabilize
G28 ;Home
;LAYER_COUNT:489
G21 ; set units to millimeters
G90 ; use absolute coordinates
M83 ; use relative distances for extrusion
; Filament gcode
M107
;LAYER_CHANGE
;Z:0.14
;HEIGHT:0.14
;BEFORE_LAYER_CHANGE
;0.14
;LAYER:1
G1 E-3 F3600
;AFTER_LAYER_CHANGE
G92 E0
M205 X10 Y10
G17
G3 Z.14 I-.31 J.292 P1  F9000
G1 X88.457 Y94.129
G1 E3 F3600
M204 P2500
;TYPE:Skirt/Brim
;WIDTH:0.44
G1 E0 F3000
G1 X89.836 Y92.928 E.04363
G1 X91.57 Y92.423 E.04309
G1 X116.018 Y90.744 E.58474
G1 X118.982 Y90.744 E.07073
G1 X143.43 Y92.423 E.58474
G1 X145.185 Y92.939 E.04365
G1 X146.541 Y94.127 E.04302
G1 X154.989 Y105.559 E.33919
G1 X155.589 Y106.603 E.02873
G1 X155.992 Y107.738 E.02874
G1 X156.208 Y109.397 E.03992
G1 X156.208 Y125.603 E.3867
G1 X156.014 Y127.175 E.03779
G1 X155.433 Y128.713 E.03923
G1 X155.041 Y129.367 E.01819
G1 X146.543 Y140.871 E.34128
G1 X145.164 Y142.072 E.04363
G1 X143.43 Y142.577 E.04309
G1 X118.982 Y144.256 E.58474
G1 X116.307 Y144.266 E.06383
G1 X91.57 Y142.578 E.59164
G1 X89.816 Y142.061 E.04363
G1 X88.459 Y140.873 E.04304
G1 X80.151 Y129.643 E.33332
G1 X79.411 Y128.397 E.03458
G1 X79.008 Y127.262 E.02874
G1 X78.792 Y125.603 E.03992
G1 X78.792 Y109.397 E.3867
G1 X78.986 Y107.825 E.03779
G1 X79.567 Y106.287 E.03923
G1 X79.959 Y105.633 E.01819
G1 X88.422 Y94.177 E.33986
G1 X88.751 Y94.421 F9000
G1 E0 F3000
G1 X88.787 Y94.372 E.00145
G1 X90.11 Y93.247 E.04144
G1 X91.598 Y92.832 E.03686
G1 X116.046 Y91.153 E.58474
G1 X118.954 Y91.153 E.06939
G1 X143.402 Y92.832 E.58474
G1 X145.063 Y93.341 E.04145
G1 X146.212 Y94.371 E.03682
G1 X154.519 Y105.601 E.33331
G1 X155.211 Y106.762 E.03225
G1 X155.592 Y107.827 E.02699
G1 X155.798 Y109.397 E.03778
G1 X155.798 Y125.603 E.3867
G1 X155.619 Y127.065 E.03515
G1 X155.064 Y128.535 E.03749
G1 X154.448 Y129.482 E.02696
G1 X146.213 Y140.628 E.33068
G1 X144.89 Y141.753 E.04144
G1 X143.402 Y142.168 E.03686
G1 X118.954 Y143.847 E.58474
G1 X116.307 Y143.856 E.06316
G1 X91.598 Y142.169 E.59097
G1 X89.938 Y141.659 E.04144
G1 X88.788 Y140.629 E.03684
G1 X80.481 Y129.399 E.33331
G1 X79.789 Y128.238 E.03225
G1 X79.408 Y127.173 E.02699
G1 X79.202 Y125.603 E.03778
G1 X79.202 Y109.397 E.3867
G1 X79.381 Y107.935 E.03515
G1 X79.936 Y106.465 E.03749
G1 X80.552 Y105.518 E.02696
G1 X88.716 Y94.469 E.32781
G1 X89.045 Y94.713 F9000
G1 E0 F3000
G1 X89.117 Y94.616 E.00288
G1 X90.379 Y93.57 E.03911
G1 X91.626 Y93.241 E.03077
G1 X116.074 Y91.562 E.58474
G1 X118.926 Y91.562 E.06805
G1 X143.374 Y93.241 E.58474
G1 X144.935 Y93.743 E.03913
G1 X145.882 Y94.615 E.03072
G1 X154.189 Y105.844 E.33329
G1 X154.834 Y106.921 E.02996
G1 X155.192 Y107.915 E.02521
G1 X155.388 Y109.397 E.03567
G1 X155.388 Y125.603 E.3867
G1 X155.224 Y126.955 E.0325
G1 X154.695 Y128.356 E.03573
G1 X154.117 Y129.24 E.0252
G1 X145.883 Y140.384 E.33062
G1 X144.621 Y141.43 E.03911
G1 X143.374 Y141.759 E.03077
G1 X118.926 Y143.438 E.58474
G1 X116.307 Y143.446 E.06249
G1 X91.626 Y141.76 E.5903
G1 X90.065 Y141.257 E.03913
G1 X89.118 Y140.386 E.0307
G1 X80.811 Y129.156 E.33331
G1 X80.166 Y128.079 E.02996
G1 X79.808 Y127.085 E.02521
G1 X79.612 Y125.603 E.03567
G1 X79.612 Y109.397 E.3867
G1 X79.776 Y108.045 E.0325
G1 X80.305 Y106.644 E.03573
G1 X80.883 Y105.76 E.0252
G1 X89.01 Y94.761 E.32632
G1 E-3 F3600
G1 X145.445 Y108.993 F9000
G1 E3 F3600
G1 E0 F3000
G1 X145.554 Y108.602 E.00969
G1 X145.731 Y108.236 E.0097
G1 X145.97 Y107.909 E.00966
G1 X146.265 Y107.629 E.00971
G1 X146.605 Y107.407 E.00969
G1 X146.979 Y107.25 E.00968
G1 X147.378 Y107.161 E.00975
G1 X147.669 Y107.143 E.00696
G1 X149.509 Y107.143 E.04391
G1 X149.923 Y107.18 E.00992
G1 X150.314 Y107.289 E.00969
G1 X150.679 Y107.466 E.00968
G1 X151.007 Y107.705 E.00968
G1 X151.286 Y108 E.00969
G1 X151.509 Y108.34 E.0097
G1 X151.666 Y108.714 E.00968
G1 X151.754 Y109.113 E.00975
G1 X151.773 Y109.404 E.00696
G1 X151.773 Y125.593 E.38629
G1 X151.735 Y126.007 E.00992
G1 X151.627 Y126.398 E.00968
G1 X151.45 Y126.764 E.0097
G1 X151.21 Y127.091 E.00968
G1 X150.916 Y127.371 E.00969
G1 X150.576 Y127.593 E.00969
G1 X150.201 Y127.75 E.0097
G1 X149.802 Y127.839 E.00975
G1 X149.512 Y127.857 E.00693
G1 X147.672 Y127.857 E.04391
G1 X147.258 Y127.82 E.00992
G1 X146.867 Y127.711 E.00969
G1 X146.501 Y127.534 E.0097
G1 X146.173 Y127.295 E.00968
G1 X145.894 Y127 E.00969
G1 X145.672 Y126.66 E.00969
G1 X145.514 Y126.286 E.00969
G1 X145.426 Y125.887 E.00975
G1 X145.408 Y125.596 E.00696
G1 X145.408 Y109.407 E.38629
G1 X145.44 Y109.053 E.00848
G1 X145.848 Y109.09 F9000
G1 E0 F3000
G1 X145.85 Y109.067 E.00055
G1 X145.939 Y108.747 E.00793
G1 X146.083 Y108.448 E.00792
G1 X146.279 Y108.18 E.00792
G1 X146.52 Y107.952 E.00792
G1 X146.798 Y107.771 E.00792
G1 X147.104 Y107.642 E.00792
G1 X147.436 Y107.568 E.00812
G1 X147.682 Y107.553 E.00588
G1 X149.49 Y107.553 E.04314
G1 X149.849 Y107.585 E.0086
G1 X150.168 Y107.674 E.0079
G1 X150.467 Y107.818 E.00792
G1 X150.735 Y108.014 E.00792
G1 X150.964 Y108.255 E.00793
G1 X151.145 Y108.533 E.00792
G1 X151.274 Y108.839 E.00792
G1 X151.347 Y109.171 E.00811
G1 X151.363 Y109.417 E.00588
G1 X151.363 Y125.575 E.38556
G1 X151.33 Y125.933 E.00858
G1 X151.242 Y126.253 E.00792
G1 X151.097 Y126.552 E.00793
G1 X150.901 Y126.82 E.00792
G1 X150.66 Y127.048 E.00792
G1 X150.382 Y127.229 E.00792
G1 X150.077 Y127.358 E.0079
G1 X149.744 Y127.432 E.00814
G1 X149.498 Y127.447 E.00588
G1 X147.69 Y127.447 E.04314
G1 X147.332 Y127.415 E.00858
G1 X147.012 Y127.326 E.00793
G1 X146.713 Y127.182 E.00792
G1 X146.445 Y126.986 E.00792
G1 X146.217 Y126.745 E.00792
G1 X146.035 Y126.467 E.00793
G1 X145.907 Y126.161 E.00791
G1 X145.833 Y125.829 E.00812
G1 X145.818 Y125.583 E.00588
G1 X145.818 Y109.425 E.38556
G1 X145.843 Y109.149 E.00661
G1 X146.251 Y109.186 F9000
G1 E0 F3000
G1 X146.255 Y109.141 E.00108
G1 X146.324 Y108.892 E.00617
G1 X146.436 Y108.66 E.00615
G1 X146.588 Y108.452 E.00615
G1 X146.775 Y108.275 E.00614
G1 X146.991 Y108.134 E.00616
G1 X147.229 Y108.034 E.00616
G1 X147.494 Y107.975 E.00648
G1 X147.695 Y107.963 E.0048
G1 X149.472 Y107.963 E.0424
G1 X149.775 Y107.99 E.00726
G1 X150.023 Y108.059 E.00614
G1 X150.255 Y108.171 E.00615
G1 X150.463 Y108.323 E.00615
G1 X150.641 Y108.51 E.00616
G1 X150.782 Y108.726 E.00616
G1 X150.881 Y108.964 E.00615
G1 X150.94 Y109.229 E.00648
G1 X150.953 Y109.43 E.00481
G1 X150.953 Y125.556 E.38479
G1 X150.926 Y125.859 E.00726
G1 X150.857 Y126.108 E.00617
G1 X150.744 Y126.34 E.00616
G1 X150.592 Y126.548 E.00615
G1 X150.405 Y126.725 E.00614
G1 X150.189 Y126.866 E.00616
G1 X149.952 Y126.966 E.00614
G1 X149.687 Y127.025 E.00648
G1 X149.485 Y127.037 E.00483
G1 X147.709 Y127.037 E.04238
G1 X147.406 Y127.01 E.00726
G1 X147.157 Y126.941 E.00617
G1 X146.925 Y126.829 E.00615
G1 X146.717 Y126.677 E.00615
G1 X146.54 Y126.49 E.00614
G1 X146.399 Y126.274 E.00616
G1 X146.299 Y126.036 E.00616
G1 X146.24 Y125.771 E.00648
G1 X146.228 Y125.57 E.0048
G1 X146.228 Y109.444 E.38479
G1 X146.245 Y109.246 E.00474
G1 X146.651 Y109.34 F9000
G1 E0 F3000
G1 X146.725 Y109.018 E.00788
G1 X146.782 Y108.893 E.00328
G1 X146.895 Y108.727 E.00479
G1 X147.04 Y108.597 E.00465
G1 X147.296 Y108.46 E.00693
G1 X147.402 Y108.42 E.0027
G1 X147.662 Y108.373 E.0063
G1 X149.518 Y108.373 E.04429
G1 X149.8 Y108.423 E.00683
G1 X150.022 Y108.517 E.00575
G1 X150.188 Y108.631 E.00481
G1 X150.318 Y108.775 E.00463
G1 X150.495 Y109.137 E.00962
G1 X150.543 Y109.397 E.00631
G1 X150.543 Y125.603 E.3867
G1 X150.455 Y125.982 E.00928
G1 X150.398 Y126.107 E.00328
G1 X150.285 Y126.273 E.00479
G1 X150.141 Y126.403 E.00463
G1 X149.885 Y126.54 E.00693
G1 X149.779 Y126.58 E.0027
G1 X149.518 Y126.627 E.00633
G1 X147.662 Y126.627 E.04429
G1 X147.38 Y126.577 E.00683
G1 X147.158 Y126.483 E.00575
G1 X146.992 Y126.369 E.00481
G1 X146.862 Y126.225 E.00463
G1 X146.685 Y125.863 E.00962
G1 X146.637 Y125.603 E.00631
G1 X146.637 Y109.398 E.38668
G1 X147.047 Y109.398 F9000
G1 E0 F3000
G1 X147.047 Y109.397 E.00002
G1 X147.121 Y109.124 E.00675
G1 X147.234 Y108.958 E.00479
G1 X147.49 Y108.821 E.00693
G1 X147.662 Y108.783 E.0042
G1 X149.518 Y108.783 E.04429
G1 X149.659 Y108.808 E.00342
G1 X149.791 Y108.856 E.00335
G1 X149.957 Y108.969 E.00479
G1 X150.095 Y109.225 E.00694
G1 X150.133 Y109.397 E.0042
G1 X150.133 Y125.603 E.3867
G1 X150.06 Y125.876 E.00674
G1 X149.946 Y126.042 E.00481
G1 X149.691 Y126.179 E.00691
G1 X149.518 Y126.217 E.00423
G1 X147.662 Y126.217 E.04429
G1 X147.521 Y126.192 E.00342
G1 X147.389 Y126.144 E.00335
G1 X147.223 Y126.031 E.00479
G1 X147.085 Y125.775 E.00694
G1 X147.047 Y125.603 E.0042
G1 X147.047 Y109.458 E.38525
G1 X147.457 Y109.458 F9000
G1 E0 F3000
G1 X147.457 Y109.397 E.00146
G1 X147.506 Y109.265 E.00336
G1 X147.662 Y109.192 E.00411
G1 X149.518 Y109.192 E.04429
G1 X149.65 Y109.241 E.00336
G1 X149.723 Y109.397 E.00411
G1 X149.723 Y125.603 E.3867
G1 X149.675 Y125.735 E.00335
G1 X149.518 Y125.808 E.00413
G1 X147.662 Y125.808 E.04429
G1 X147.53 Y125.759 E.00336
G1 X147.457 Y125.603 E.00411
G1 X147.457 Y109.518 E.38381
G1 E-3 F3600
G1 X89.592 Y109.518 F9000
G1 E3 F3600
G1 E0 F3000
G1 X89.592 Y125.593 E.38357
G1 X89.555 Y126.007 E.00992
G1 X89.446 Y126.398 E.00969
G1 X89.269 Y126.764 E.0097
G1 X89.03 Y127.091 E.00966
G1 X88.735 Y127.371 E.00971
G1 X88.395 Y127.593 E.00969
G1 X88.021 Y127.75 E.00968
G1 X87.622 Y127.839 E.00975
G1 X87.331 Y127.857 E.00696
G1 X85.491 Y127.857 E.04391
G1 X85.077 Y127.82 E.00992
G1 X84.686 Y127.711 E.00969
G1 X84.321 Y127.534 E.00968
G1 X83.993 Y127.295 E.00968
G1 X83.713 Y127 E.00971
G1 X83.491 Y126.66 E.00969
G1 X83.334 Y126.286 E.00968
G1 X83.246 Y125.887 E.00975
G1 X83.227 Y125.596 E.00696
G1 X83.227 Y109.407 E.38629
G1 X83.265 Y108.993 E.00992
G1 X83.373 Y108.602 E.00968
G1 X83.55 Y108.236 E.0097
G1 X83.79 Y107.909 E.00968
G1 X84.084 Y107.629 E.00969
G1 X84.424 Y107.407 E.00969
G1 X84.799 Y107.25 E.0097
G1 X85.198 Y107.161 E.00975
G1 X85.488 Y107.143 E.00693
G1 X87.328 Y107.143 E.04391
G1 X87.742 Y107.18 E.00992
G1 X88.133 Y107.289 E.00969
G1 X88.499 Y107.466 E.0097
G1 X88.827 Y107.705 E.00968
G1 X89.106 Y108 E.00969
G1 X89.328 Y108.34 E.00969
G1 X89.485 Y108.714 E.00968
G1 X89.574 Y109.113 E.00975
G1 X89.592 Y109.404 E.00696
G1 X89.592 Y109.458 E.00129
G1 X89.182 Y109.458 F9000
G1 E0 F3000
G1 X89.182 Y125.575 E.38458
G1 X89.15 Y125.933 E.00858
G1 X89.061 Y126.253 E.00793
G1 X88.917 Y126.552 E.00792
G1 X88.721 Y126.82 E.00792
G1 X88.48 Y127.048 E.00792
G1 X88.202 Y127.229 E.00792
G1 X87.896 Y127.358 E.00792
G1 X87.564 Y127.432 E.00812
G1 X87.318 Y127.447 E.00588
G1 X85.51 Y127.447 E.04314
G1 X85.151 Y127.415 E.0086
G1 X84.831 Y127.326 E.00793
G1 X84.533 Y127.182 E.0079
G1 X84.265 Y126.986 E.00792
G1 X84.036 Y126.745 E.00793
G1 X83.855 Y126.467 E.00792
G1 X83.726 Y126.161 E.00792
G1 X83.653 Y125.829 E.00811
G1 X83.637 Y125.583 E.00588
G1 X83.637 Y109.425 E.38556
G1 X83.669 Y109.067 E.00858
G1 X83.758 Y108.747 E.00793
G1 X83.903 Y108.448 E.00793
G1 X84.099 Y108.18 E.00792
G1 X84.34 Y107.952 E.00792
G1 X84.617 Y107.771 E.0079
G1 X84.923 Y107.642 E.00792
G1 X85.255 Y107.568 E.00812
G1 X85.501 Y107.553 E.00588
G1 X87.31 Y107.553 E.04317
G1 X87.668 Y107.585 E.00858
G1 X87.988 Y107.674 E.00793
G1 X88.287 Y107.818 E.00792
G1 X88.555 Y108.014 E.00792
G1 X88.783 Y108.255 E.00792
G1 X88.965 Y108.533 E.00793
G1 X89.093 Y108.839 E.00791
G1 X89.167 Y109.171 E.00812
G1 X89.181 Y109.398 E.00543
G1 X88.772 Y109.424 F9000
G1 E0 F3000
G1 X88.772 Y109.43 E.00014
G1 X88.772 Y125.556 E.38479
G1 X88.745 Y125.859 E.00726
G1 X88.676 Y126.108 E.00617
G1 X88.564 Y126.34 E.00615
G1 X88.412 Y126.548 E.00615
G1 X88.225 Y126.725 E.00614
G1 X88.009 Y126.866 E.00616
G1 X87.771 Y126.966 E.00616
G1 X87.506 Y127.025 E.00648
G1 X87.305 Y127.037 E.0048
G1 X85.528 Y127.037 E.0424
G1 X85.225 Y127.01 E.00726
G1 X84.977 Y126.941 E.00614
G1 X84.745 Y126.829 E.00615
G1 X84.537 Y126.677 E.00615
G1 X84.359 Y126.49 E.00616
G1 X84.218 Y126.274 E.00616
G1 X84.119 Y126.036 E.00615
G1 X84.06 Y125.771 E.00648
G1 X84.047 Y125.57 E.00481
G1 X84.047 Y109.444 E.38479
G1 X84.074 Y109.141 E.00726
G1 X84.143 Y108.892 E.00617
G1 X84.256 Y108.66 E.00616
G1 X84.408 Y108.452 E.00615
G1 X84.595 Y108.275 E.00614
G1 X84.811 Y108.134 E.00616
G1 X85.048 Y108.034 E.00614
G1 X85.313 Y107.975 E.00648
G1 X85.515 Y107.963 E.00483
G1 X87.291 Y107.963 E.04238
G1 X87.594 Y107.99 E.00726
G1 X87.843 Y108.059 E.00617
G1 X88.075 Y108.171 E.00615
G1 X88.283 Y108.323 E.00615
G1 X88.46 Y108.51 E.00614
G1 X88.601 Y108.726 E.00616
G1 X88.701 Y108.964 E.00616
G1 X88.76 Y109.229 E.00648
G1 X88.768 Y109.364 E.00323
G1 X88.363 Y109.397 F9000
G1 E0 F3000
G1 X88.363 Y125.603 E.3867
G1 X88.275 Y125.982 E.00928
G1 X88.218 Y126.107 E.00328
G1 X88.105 Y126.273 E.00479
G1 X87.96 Y126.403 E.00465
G1 X87.704 Y126.54 E.00693
G1 X87.598 Y126.58 E.0027
G1 X87.338 Y126.627 E.0063
G1 X85.482 Y126.627 E.04429
G1 X85.2 Y126.577 E.00683
G1 X84.978 Y126.483 E.00575
G1 X84.812 Y126.369 E.00481
G1 X84.681 Y126.225 E.00465
G1 X84.505 Y125.863 E.0096
G1 X84.457 Y125.603 E.00631
G1 X84.457 Y109.397 E.3867
G1 X84.545 Y109.018 E.00928
G1 X84.602 Y108.893 E.00328
G1 X84.715 Y108.727 E.00479
G1 X84.859 Y108.597 E.00463
G1 X85.115 Y108.46 E.00693
G1 X85.221 Y108.42 E.0027
G1 X85.482 Y108.373 E.00633
G1 X87.338 Y108.373 E.04429
G1 X87.62 Y108.423 E.00683
G1 X87.842 Y108.517 E.00575
G1 X88.008 Y108.631 E.00481
G1 X88.138 Y108.775 E.00463
G1 X88.315 Y109.137 E.00962
G1 X88.352 Y109.338 E.00488
G1 X87.953 Y109.397 F9000
G1 E0 F3000
G1 X87.953 Y125.603 E.3867
G1 X87.879 Y125.876 E.00675
G1 X87.766 Y126.042 E.00479
G1 X87.51 Y126.179 E.00693
G1 X87.338 Y126.217 E.0042
G1 X85.482 Y126.217 E.04429
G1 X85.341 Y126.192 E.00342
G1 X85.209 Y126.144 E.00335
G1 X85.043 Y126.031 E.00479
G1 X84.905 Y125.775 E.00694
G1 X84.867 Y125.603 E.0042
G1 X84.867 Y109.397 E.3867
G1 X84.94 Y109.124 E.00674
G1 X85.054 Y108.958 E.00481
G1 X85.309 Y108.821 E.00691
G1 X85.482 Y108.783 E.00423
G1 X87.338 Y108.783 E.04429
G1 X87.479 Y108.808 E.00342
G1 X87.611 Y108.856 E.00335
G1 X87.777 Y108.969 E.00479
G1 X87.914 Y109.225 E.00693
G1 X87.94 Y109.339 E.00279
G1 X87.543 Y109.397 F9000
G1 E0 F3000
G1 X87.543 Y125.603 E.3867
G1 X87.494 Y125.735 E.00336
G1 X87.338 Y125.808 E.00411
G1 X85.482 Y125.808 E.04429
G1 X85.349 Y125.759 E.00338
G1 X85.277 Y125.603 E.0041
G1 X85.277 Y109.397 E.3867
G1 X85.325 Y109.265 E.00335
G1 X85.482 Y109.192 E.00413
G1 X87.338 Y109.192 E.04429
G1 X87.47 Y109.241 E.00336
G1 X87.517 Y109.343 E.00268
G1 E-3 F3600
G1 X96.495 Y97.018 F9000
G1 E3 F3600
;TYPE:Support material
G1 E0 F3000
G1 X96.495 Y137.983 E1.17299
G1 X96.65 Y138.138 E.00628
G1 X92.079 Y138.138 E.13089
G1 X92.079 Y96.862 E1.18189
G1 X96.65 Y96.862 E.13089
G1 X96.538 Y96.974 E.00454
G1 X92.264 Y137.542 F9000
G1 E0 F3000
G1 X96.126 Y137.542 E.11058
G1 X96.126 Y137.087 E.01303
G1 X92.448 Y137.087 E.10532
G1 X92.448 Y136.631 E.01306
G1 X96.126 Y136.631 E.10532
G1 X96.126 Y136.176 E.01303
G1 X92.448 Y136.176 E.10532
G1 X92.448 Y135.72 E.01306
